X: 11181
M: 3/4
L: 1/8
K: D
(D>E) | F2 {B}A2 (B>c) | d3 e f2 |\
(d>c) (de) {de}f2 |[1 (A>B) (A<F) {F/}(E>D) | D4 :|\
[2 A2 gf {f/}e>d | d4 |: (de) | {de}f2 {a/}(gf) (ed) |
{d}c2 (ec) (B<A) | (B>cd) {c/}B {B/}(A>F) | F2 E2 (D>E) |\
[2 A2 (gf) {f/}(Te>d) | d4 (de) | f2 {a/}gfed | d3 e f2 |\
(A>d) (A<F) {F/}([EE]>D) | D4 :|




